X: 4371
M: C
L: 1/16
K: G
[|!f!\
d4 d3d d4 d4 | g12 f3e |\
e2d2c2B2 B4 B3A | G12 agfe |\
d4 edcB A4 dcBA | B4 G3G G4 agfe |
d4 edcB A4 dcBA | G4 g3g g4 H|:\
(GFGA) |\
c4 dcBA A4 dcBA |[1 B4 G3G G4 :|[1 B4 G3G G4 z4 |]


